material/.icons/material/menu-swap-outline.svg

<svg xmlns="http://www.w3.org/2000/svg" viewBox="0 0 24 24"><path d="M12 3.5l-6 6V11h12V9.5l-6-6m0 2.83L14.67 9H9.33L12 6.33M6 13v1.5l6 6 6-6V13H6m3.33 2h5.34L12 17.67 9.33 15z"/></svg>

<?xml version="1.0" encoding="UTF-8"?><!DOCTYPE svg PUBLIC "-//W3C//DTD SVG 1.1//EN" "http://www.w3.org/Graphics/SVG/1.1/DTD/svg11.dtd"><svg xmlns="http://www.w3.org/2000/svg" xmlns:xlink="http://www.w3.org/1999/xlink" version="1.1" id="mdi-menu-swap-outline" width="24" height="24" viewBox="0 0 24 24"><path d="M12,3.5L6,9.5V11H18V9.5L12,3.5M12,6.33L14.67,9H9.33L12,6.33M6,13V14.5L12,20.5L18,14.5V13H6M9.33,15H14.67L12,17.67L9.33,15Z" /></svg>
